packages/kaspersky-hexa-ui-icons/src/iconsSVGs/24/NotUnique.svg

<svg width="24" height="24" viewBox="0 0 24 24" fill="none" xmlns="http://www.w3.org/2000/svg">
<path d="M11.2929 11.2929C11.6834 10.9024 12.3166 10.9024 12.7071 11.2929L14 12.5858L15.2929 11.2929C15.6834 10.9024 16.3166 10.9024 16.7071 11.2929C17.0976 11.6834 17.0976 12.3166 16.7071 12.7071L15.4142 14L16.6705 15.2563C17.061 15.6468 17.061 16.28 16.6705 16.6705C16.28 17.061 15.6468 17.061 15.2563 16.6705L14 15.4142L12.7071 16.7071C12.3166 17.0976 11.6834 17.0976 11.2929 16.7071C10.9024 16.3166 10.9024 15.6834 11.2929 15.2929L12.5858 14L11.2929 12.7071C10.9024 12.3166 10.9024 11.6834 11.2929 11.2929Z" fill="black"/>
<path fill-rule="evenodd" clip-rule="evenodd" d="M6 4C6 2.34315 7.34315 1 9 1H14.8265C15.2262 1 15.6093 1.15952 15.891 1.44317L21.5645 7.15778C21.8434 7.43877 22 7.81866 22 8.21461V18C22 19.6569 20.6569 21 19 21H9C7.34315 21 6 19.6569 6 18V4ZM9 3C8.44772 3 8 3.44772 8 4V18C8 18.5523 8.44772 19 9 19H19C19.5523 19 20 18.5523 20 18V8.98488H17.0093C15.3524 8.98488 14.0093 7.64173 14.0093 5.98487L14.0093 3H9ZM16.0093 4.40105L18.5745 6.98488H17.0093C16.457 6.98488 16.0093 6.53716 16.0093 5.98487L16.0093 4.40105Z" fill="black"/>
<path d="M5 6.7423C5 6.19002 4.55228 5.7423 4 5.7423C3.44772 5.7423 3 6.19002 3 6.7423V18.5C3 21.5376 5.46243 24 8.5 24H17.0755C17.6277 24 18.0755 23.5523 18.0755 23C18.0755 22.4477 17.6277 22 17.0755 22H8.5C6.567 22 5 20.433 5 18.5V6.7423Z" fill="black"/>
</svg>

<svg xmlns="http://www.w3.org/2000/svg" width="24" height="24" fill="none" viewBox="0 0 24 24"><path fill="#000" fill-rule="evenodd" d="M9 1C7.3431 1 6 2.3431 6 4v14c0 1.6569 1.3431 3 3 3h10c1.6569 0 3-1.3431 3-3V8.2146c0-.396-.1566-.7758-.4355-1.0568L15.891 1.4432A1.5 1.5 0 0 0 14.8265 1zM8 4c0-.5523.4477-1 1-1h5.0093v2.9849c0 1.6568 1.3431 3 3 3H20V18c0 .5523-.4477 1-1 1H9c-.5523 0-1-.4477-1-1zm10.5745 2.9849L16.0093 4.401v1.584c0 .5523.4477 1 1 1zM5 6.7423c0-.5523-.4477-1-1-1s-1 .4477-1 1V18.5C3 21.5376 5.4624 24 8.5 24h8.5755c.5522 0 1-.4477 1-1s-.4478-1-1-1H8.5C6.567 22 5 20.433 5 18.5zm6.2929 4.5506c.3905-.3905 1.0237-.3905 1.4142 0L14 12.5858l1.2929-1.2929c.3905-.3905 1.0237-.3905 1.4142 0s.3905 1.0237 0 1.4142L15.4142 14l1.2563 1.2563c.3905.3905.3905 1.0237 0 1.4142s-1.0237.3905-1.4142 0L14 15.4142l-1.2929 1.2929c-.3905.3905-1.0237.3905-1.4142 0s-.3905-1.0237 0-1.4142L12.5858 14l-1.2929-1.2929c-.3905-.3905-.3905-1.0237 0-1.4142"/></svg>
